X: 030568
T: Castlebar Traveller
S: Treoir
Z: B.Black
M: 4/4
L: 1/8
R: reel
K: Ador
a2 ag e2 dc | BG G2 BABd | eaag e2 dc | BAGA BA A2 |
eaag e2 dc | BG G2 BABd | edef g2 af | gedB BA A2 :|
eaag e2 dB | BG G2 BABd | eaag A2 ga | baga ba a2 |
abag eBdc | BG G2 BABd | edef gbaf | gedB BA A2 :|
